assets/images/l_pf-reverse.svg

<svg id="Layer_1" data-name="Layer 1" xmlns="http://www.w3.org/2000/svg" width="2.27in" height="0.16in" viewBox="0 0 163.6 11.4"><defs><style>.cls-1{fill:#fff;}</style></defs><title>Artboard 1</title><path class="cls-1" d="M0,11.3V0H4.8A4.84,4.84,0,0,1,6.6.3a3.6,3.6,0,0,1,1.2.8,4.13,4.13,0,0,1,.7,1.1,5.85,5.85,0,0,1,.2,1.3,2.2,2.2,0,0,1-.1.8,6.89,6.89,0,0,1-.3.8,1.79,1.79,0,0,1-.5.7c-.2.2-.5.4-.7.6a3,3,0,0,1-1,.4,4.87,4.87,0,0,1-1.2.1H2.2V11ZM4.9,5.1A1.48,1.48,0,0,0,5.6,5c.2-.2.4-.3.5-.4a2.19,2.19,0,0,0,.3-.5,1.09,1.09,0,0,0,.1-.5.9.9,0,0,0-.1-.5c0-.2-.1-.3-.2-.5a2.18,2.18,0,0,0-.5-.4A1.48,1.48,0,0,0,5,2.1H2.2v3Z"/><path class="cls-1" d="M23.7,11.3,22.8,9H18.4l-.9,2.3H15.2L19.5,0h2.1l4.3,11.3ZM21,4c-.1-.1-.1-.3-.2-.5s-.1-.4-.2-.5c0,.2-.1.3-.2.5s-.1.4-.2.5L19.1,6.9H22Z"/><path class="cls-1" d="M38.3,2.1v9.2H36.1V2.1H32.9V0h8.6V2.1Z"/><path class="cls-1" d="M55.2,2.1v9.2H53V2.1H49.8V0h8.6V2.1Z"/><path class="cls-1" d="M67.4,11.3V0h7.7V2.1H69.6V4.5h3.2V6.6H69.6V9.3h5.9v2.1Z"/><path class="cls-1" d="M84.6,11.3V0h5.2a4.84,4.84,0,0,1,1.8.3,3.6,3.6,0,0,1,1.2.8,2.38,2.38,0,0,1,.6,1.1,5.85,5.85,0,0,1,.2,1.3,3.75,3.75,0,0,1-.1,1,3.55,3.55,0,0,1-.4.9,2.7,2.7,0,0,1-.7.8,8.79,8.79,0,0,1-1,.6l2.2,4.5H91.2L89,7.1H86.7v4.2ZM89.8,5a1.48,1.48,0,0,0,.7-.1c.2-.1.3-.2.5-.3a.76.76,0,0,0,.2-.5,1.27,1.27,0,0,0,.1-.6.75.75,0,0,0-.1-.5c0-.2-.1-.3-.2-.5a2.19,2.19,0,0,0-.5-.3,1.48,1.48,0,0,0-.7-.1H86.7V5Z"/><path class="cls-1" d="M109.9,11.3l-4.5-6.6a.52.52,0,0,1-.2-.4c-.1-.2-.2-.3-.2-.4v7.4h-2.2V0h2l4.4,6.5c.1.1.1.2.2.4s.2.3.2.5V0h2.2V11.3Z"/><path class="cls-1" d="M121.6,11.3V0h7.6V2.1h-5.4V4.5h3.4V6.6h-3.4v4.8Z"/><path class="cls-1" d="M138,11.3V0h2.2V9.2h5.4v2.1Z"/><path class="cls-1" d="M156,11.3V6.9L151.8,0h2.5l2.8,4.6L159.9,0h2.5l-4.2,6.9v4.4Z"/></svg>

<?xml version="1.0" encoding="utf-8"?>
<!-- Generator: Adobe Illustrator 22.1.0, SVG Export Plug-In . SVG Version: 6.00 Build 0)  -->
<svg version="1.1" id="Layer_1" xmlns="http://www.w3.org/2000/svg" xmlns:xlink="http://www.w3.org/1999/xlink" x="0px" y="0px"
	 viewBox="0 0 163.6 11.4" style="enable-background:new 0 0 163.6 11.4;" xml:space="preserve">
<style type="text/css">
	.st0{fill:#FFFFFF;}
</style>
<g>
	<path class="st0" d="M0,11.3V0h4.8c0.7,0,1.3,0.1,1.8,0.3s0.9,0.5,1.2,0.8c0.3,0.3,0.5,0.7,0.7,1.1c0.1,0.4,0.2,0.9,0.2,1.3
		c0,0.3,0,0.5-0.1,0.8S8.4,4.9,8.3,5.1C8.2,5.4,8,5.6,7.8,5.8S7.3,6.2,7.1,6.4c-0.3,0.2-0.6,0.3-1,0.4S5.3,6.9,4.9,6.9H2.2V11
		L0,11.3L0,11.3z M4.9,5.1c0.3,0,0.5,0,0.7-0.1C5.8,4.8,6,4.7,6.1,4.6s0.2-0.3,0.3-0.5c0.1-0.2,0.1-0.4,0.1-0.5c0-0.2,0-0.3-0.1-0.5
		c0-0.2-0.1-0.3-0.2-0.5C6.1,2.5,5.9,2.3,5.7,2.2S5.3,2.1,5,2.1H2.2v3H4.9L4.9,5.1z"/>
	<path class="st0" d="M23.7,11.3L22.8,9h-4.4l-0.9,2.3h-2.3L19.5,0h2.1l4.3,11.3H23.7z M21,4c-0.1-0.1-0.1-0.3-0.2-0.5
		S20.7,3.1,20.6,3c0,0.2-0.1,0.3-0.2,0.5S20.3,3.9,20.2,4l-1.1,2.9H22L21,4z"/>
	<path class="st0" d="M38.3,2.1v9.2h-2.2V2.1h-3.2V0h8.6v2.1H38.3z"/>
	<path class="st0" d="M55.2,2.1v9.2H53V2.1h-3.2V0h8.6v2.1H55.2z"/>
	<path class="st0" d="M67.4,11.3V0h7.7v2.1h-5.5v2.4h3.2v2.1h-3.2v2.7h5.9v2.1L67.4,11.3L67.4,11.3z"/>
	<path class="st0" d="M84.6,11.3V0h5.2c0.7,0,1.3,0.1,1.8,0.3s0.9,0.5,1.2,0.8c0.3,0.3,0.5,0.7,0.6,1.1s0.2,0.9,0.2,1.3
		c0,0.3,0,0.6-0.1,1c-0.1,0.3-0.2,0.6-0.4,0.9c-0.2,0.3-0.4,0.6-0.7,0.8c-0.3,0.2-0.6,0.4-1,0.6l2.2,4.5h-2.4L89,7.1h-2.3v4.2H84.6z
		 M89.8,5c0.3,0,0.5,0,0.7-0.1s0.3-0.2,0.5-0.3c0.1-0.1,0.2-0.3,0.2-0.5c0.1-0.2,0.1-0.4,0.1-0.6s0-0.4-0.1-0.5
		c0-0.2-0.1-0.3-0.2-0.5c-0.1-0.1-0.3-0.2-0.5-0.3s-0.4-0.1-0.7-0.1h-3.1V5H89.8L89.8,5L89.8,5z"/>
	<path class="st0" d="M109.9,11.3l-4.5-6.6c-0.1-0.1-0.2-0.2-0.2-0.4C105.1,4.1,105,4,105,3.9c0,0.1,0,0.3,0,0.4c0,0.2,0,0.3,0,0.4
		v6.6h-2.2V0h2l4.4,6.5c0.1,0.1,0.1,0.2,0.2,0.4c0.1,0.2,0.2,0.3,0.2,0.5c0-0.1,0-0.3,0-0.5s0-0.3,0-0.4V0h2.2v11.3H109.9
		L109.9,11.3z"/>
	<path class="st0" d="M121.6,11.3V0h7.6v2.1h-5.4v2.4h3.4v2.1h-3.4v4.8L121.6,11.3L121.6,11.3z"/>
	<path class="st0" d="M138,11.3V0h2.2v9.2h5.4v2.1C145.6,11.3,138,11.3,138,11.3z"/>
	<path class="st0" d="M156,11.3V6.9L151.8,0h2.5l2.8,4.6l2.8-4.6h2.5l-4.2,6.9v4.4H156z"/>
</g>
</svg>
